X:692
%%etbk:tnset id:429,pos:1,rep:3x,ant:
%%etbk:wsite https://thesession.org/tunes/654
%%etbk:video src:ytube,cde:Rc6SWpg5z4k,desc:
%%etbk:pldat 2016-09-04T13:59,2016-08-04T19:15,2016-07-12T17:04,2016-06-12T15:16,2016-04-18T18:55,2016-03-15T17:35,2016-03-14T18:49,2016-01-27T17:18,2016-01-20T17:41,2016-01-17T14:52,2016-01-12T18:16,2016-01-02T13:44,2015-12-22T16:39,2015-12-15T17:24,2015-11-28T16:16,2015-11-25T16:43,2015-11-24T18:04,2015-10-20T17:48,2015-10-17T15:30,2015-10-14T17:11,2015-10-12T18:13,2015-10-07T17:11,2015-09-30T17:19,2015-09-06T14:26,2015-08-18T17:49,2015-08-15T14:05,2015-08-14T15:18,2015-08-13T18:56,2015-08-11T17:31,2015-08-09T14:45,2015-08-04T17:37,2015-08-02T12:10,2015-08-01T17:18,2015-07-31T18:39,2015-07-29T17:55,2015-07-27T19:38,2015-07-25T15:03,2015-07-24T18:29,2015-07-23T19:03,2015-07-18T17:14,2015-06-08T19:05,2015-06-06T14:51,2015-05-31T16:19,2015-05-25T16:23,2015-05-19T18:19,2015-05-17T14:24,2015-05-05T16:18,2015-04-27T19:12,2015-04-21T17:03,2015-04-19T10:43
T: The Fermanagh
Z: Piano Box Version by Martin Fleischmann
H: Created 2015-04-11 /  Last Modified 2015-05-25
R: highland
M: 4/4
L: 1/8
K: Dmaj
dB|:!3!A2 !2!F!3!A !5!dDdB|!3!A2 F!1!D !1!EFG!5!B|!4!A2 F!3!A !5!dAFA|1 !4!B!2!GE!3!G !2!FDdB:|2 BGEG FDD2||
!2!d!1!AFA !4!fAfe|!2!dAFA !2!B!5!eec|!4!dAFA !4!f3!1!G|!1!G!2!F!1!EF !1!GAB!4!c|
dAAA f2 fe|dAFA Beec|d2 cd Bc Ac|(3Bcd ec d2 dB||


